!!!COM: Claude Goudimel
!!!OMD: Psalm 49: Peuples, oyez, et l'aureille
**kern	**kern	**kern	**kern
*part4	*part3	*part2	*part1
*staff4	*staff3	*staff2	*staff1
*I"bassus	*I"tenor	*I"contra	*I"superius
*clefC4	*clefC3	*clefC2	*clefG2
!!LO:TX:omd:t=
*M2/2	*M2/2	*M2/2	*M2/2
*met(c|)	*met(c|)	*met(c|)	*met(c|)
=1	=1	=1	=1
1c	1c	1e	1g
=2	=2	=2	=2
1A	1c	1e	1a
=3	=3	=3	=3
1G	1d	1g	1b
=4	=4	=4	=4
2c	2e	2g	2cc
2c	2e	2g	2cc
=5	=5	=5	=5
2F	2f	2a	2cc
2C	2e	[2g	2cc
=6	=6	=6	=6
1D	1d	2g]	1a
.	.	2f#X	.
=7	=7	=7	=7
1G	1d	1g	1b
=8	=8	=8	=8
1C	1c	1e	1g
=9	=9	=9	=9
1r	1r	1r	1r
=10	=10	=10	=10
1c	1g	1e	1cc
=11	=11	=11	=11
2c	2g	2e	2cc
2F	2f	2a	2cc
=12	=12	=12	=12
1c	1e	1g	1cc
=13	=13	=13	=13
1C	1g	1e	1cc
=14	=14	=14	=14
2D	2f	2d	2a
2E	2e	2B	2g
=15	=15	=15	=15
2C	2e	2c	2g
2F	2d	2A	2a
=16	=16	=16	=16
1E	1e	1B	1g#X
=17	=17	=17	=17
1r	1r	1r	1r
=18	=18	=18	=18
1C	1e	1g	1cc
=19	=19	=19	=19
2C	2e	2g	2cc
2C	2e	2g	2cc
=20	=20	=20	=20
1G	1d	1g	1b
=21	=21	=21	=21
1C	1e	1g	1cc
=22	=22	=22	=22
2F	2f	2a	2cc
2C	2e	2g	2cc
=23	=23	=23	=23
2G	2d	2g	2b
2A	2c	2c	2e
=24	=24	=24	=24
1G	1B	1d	1g
=25	=25	=25	=25
1r	1r	1r	1r
=26	=26	=26	=26
1C	1c	1e	1g
=27	=27	=27	=27
2F	2A	2c	2f
2D	2d	2f	2a
=28	=28	=28	=28
1A	1c	1e	1a
=29	=29	=29	=29
1E	1e	1g	1g
=30	=30	=30	=30
2F	2d	2f	2a
2F	2c	2f	2a
=31	=31	=31	=31
2G	2c	2e	2g
2G	2B	2d	2g
=32	=32	=32	=32
1C	1c	1e	1g
=33	=33	=33	=33
1r	1r	1r	1r
=34	=34	=34	=34
1G	1G	1d	1g
=35	=35	=35	=35
2D	2A	2d	2f#X
2G	2B	2d	2g
=36	=36	=36	=36
1C	1c	1e	1g
=37	=37	=37	=37
1c	1e	1g	1cc
=38	=38	=38	=38
2c	2g	2e	2cc
2c	2g	2e	2cc
=39	=39	=39	=39
2F	2f	2a	2cc
2F	2f	2a	2cc
=40	=40	=40	=40
1c	1e	1g	1cc
=41	=41	=41	=41
1r	1r	1r	1r
=42	=42	=42	=42
1c	1g	1e	1cc
=43	=43	=43	=43
2A	2c	2e	2cc
2G	2d	2g	2b
=44	=44	=44	=44
1c	1e	1g	1cc
=45	=45	=45	=45
1C	1g	1e	1cc
=46	=46	=46	=46
2D	2f	2d	2a
2E	2e	2B	2g
=47	=47	=47	=47
2C	2e	2c	2g
2F	2d	2A	2a
=48	=48	=48	=48
1E	1e	1B	1g#X
=49	=49	=49	=49
1r	1r	1r	1r
=50	=50	=50	=50
1A	1c	1e	1a
=51	=51	=51	=51
2A	2c	2e	2a
2G	2d	2g	2b
=52	=52	=52	=52
1c	1e	1g	1cc
=53	=53	=53	=53
1F	1f	1a	1cc
=54	=54	=54	=54
2C	2e	2g	2cc
2D	2d	2f	2a
=55	=55	=55	=55
2F	2c	2f	2a
2G	2B	2d	[2g
=56	=56	=56	=56
1D	1A	1d	2g]
.	.	.	2f#X
=57	=57	=57	=57
1G	1G	1d	1g
=58	=58	=58	=58
1r	1r	1r	1r
=59	=59	=59	=59
1C	1g	1e	1cc
=60	=60	=60	=60
2F	2f	2c	2cc
2C	2e	2g	2cc
=61	=61	=61	=61
1G	1d	1g	1b
=62	=62	=62	=62
1C	1g	1e	1cc
=63	=63	=63	=63
2F	2f	2c	2a
2C	2e	2g	2cc
=64	=64	=64	=64
2G	2d	2g	2b
2A	2c	2e	[2cc
=65	=65	=65	=65
1G	1d	1g	2cc]
.	.	.	2b
=66	=66	=66	=66
1C;	1c;	1g;	1cc;
==	==	==	==
*-	*-	*-	*-
!!!software: music21 v.9.7.1
!!!software: music21 v.9.1.0
!!!RDF**kern: > = above
!!!RDF**kern: < = below
